app/img/icomoon/plus.svg

<svg width="12" height="12" viewBox="0 0 12 12" fill="none" xmlns="http://www.w3.org/2000/svg">
<path d="M5.15002 0.149902H6.85002V5.1499H11.85V6.8499H6.85002V11.8499H5.15002V6.8499H0.150024V5.1499H5.15002V0.149902Z" fill="white"/>
</svg>

<svg width="12" height="12" fill="none" xmlns="http://www.w3.org/2000/svg"><path d="M5.15.15h1.7v5h5v1.7h-5v5h-1.7v-5h-5v-1.7h5v-5z" fill="#fff"/></svg>
